!!!OTL: 2038. Die arme Seele.
!!!ARE: Europa, Mitteleuropa, Deutschland, Hessen, Wuerges; Reifenberg
!!!SCT: E2038
!!!TXL: @@DE
!!!YEM: Copyright 1995, estate of Helmut Schaffrath.
**kern	**text
*ICvox	*
*M3/8	*
*k[f#]	*
*G:	*
!LO:TX:a:t=Sehr mäßig.	!
!LO:TX:a:t=Aus Würges und Reifenberg (Taunus).	!
{8d	Wie
=1	=1
8.g	fälſchlich
16a	.
8b/	die
=2	=2
8.a	Ju-
16g	-den,
8a	wie
=3	=3
8b	bos-
8cc	-haft
8b	die
=4	=4
4a}	Welt,
{16aL	weil
16bJ	.
=5	=5
8cc	ſie
8cc	ihn
16bL	ver-
16aJ	.
=6	=6
(16bL	-kauf-
16ccJ)	.
8dd;	-ten,
16ccL	un-
16bJ	-ſern
=7	=7
8a	Hei-
8a	-land,
16bL	fürs
16aJ	.
=8	=8
4g}	Geld!
{16aL	weil
16bJ	.
=9	=9
8cc	ſie
8cc	ihn
16bL	ver-
16aJ	.
=10	=10
(16bL	-kauf-
16ccJ)	.
8dd;	-ten,
16ccL	un-
16bJ	-ſern
=11	=11
8a	Hei-
8a	-land,
16bL	fürs
16aJ	.
=12	=12
4g}	Geld!
==	==
!!!AGN: geistlich, Wallfahrts - Lied
!!!ONB: ESAC (Essen Associative Code) Database: ERK3
!!!AMT: simple triple
!!!AIN: vox
!!!EED: Helmut Schaffrath
!!!EEV: 1.0
!!!GTL: 4. Katholische Lieder: a) Wallfahrtlieder zur Bittwoche und zum Fronleichnamstag.
!!!URL-scan: https://rosdok.uni-rostock.de/mcrviewer/recordIdentifier/rosdok_ppn745177999/iview2/phys_0745.iview2?x=145.8077540840577&y=1228.1479829498567&scale=0.7014306698522891&rotation=0&layout=singlePageLayout
!!!ENC: Anna Maria Matuszewska
!!!EEV: 2025/13/01
*-	*-
